X: 03083
T: SHELLEY'S REEL
C: Bob McQuillen 22 Mar 78
B: Bob's Note Book 03 #83
R: reel
%D:1978
Z: 2020 John Chambers <jc:trillian.mit.edu>
M: C
L: 1/8
K: D
FE \
| D2DF AFDA | BABc d2FE | D2DF AFDF | EABc A2FE |
| D2DF AFDA | BABc d2de | fedA BdAG | FDEC D2  :|
|: AB \
| d2fe dcBA | B2c2 d3A | BABd AFDF | EDEF A2Bc |
| d2fe dcBA | B2c2 d3A | BABd AFDF | EDEF D2  :|
%%begintext align
%% For Shelley Osborne, with
%% love and Best Wishes always.
%%endtext

%%sep 1 1 500

%%sep 1 1 500

